X:1
T:Jennifer Gentle (Three Sisters)
M:6/8
L:1/8
K:G
 G| G2 D G2 A| c2 B A3| GGD GAB| c2 B A2 A|A-A B c2 A| d2 G FED| G2 A Bdc|\
 BcA G2||
